svg/message_settings.svg

<svg xmlns="http://www.w3.org/2000/svg" viewBox="0 0 24 24"><path d="M20 2H4a2 2 0 0 0-2 2v18l4-4h14a2 2 0 0 0 2-2V4a2 2 0 0 0-2-2m-9 22h2v-2h-2zm-4 0h2v-2H7zm8 0h2v-2h-2z"/></svg>

<?xml version="1.0" encoding="UTF-8"?><!DOCTYPE svg PUBLIC "-//W3C//DTD SVG 1.1//EN" "http://www.w3.org/Graphics/SVG/1.1/DTD/svg11.dtd"><svg xmlns="http://www.w3.org/2000/svg" xmlns:xlink="http://www.w3.org/1999/xlink" version="1.1" id="mdi-message-settings" width="24" height="24" viewBox="0 0 24 24"><path d="M20,2H4A2,2 0 0,0 2,4V22L6,18H20A2,2 0 0,0 22,16V4A2,2 0 0,0 20,2M11,24H13V22H11V24M7,24H9V22H7V24M15,24H17V22H15V24Z" /></svg>
